src/files/images/logo-coffeedesign-large.svg

<?xml version="1.0" encoding="UTF-8" standalone="no"?>
<svg width="416px" height="205px" viewBox="0 0 416 205" version="1.1" xmlns="http://www.w3.org/2000/svg" xmlns:xlink="http://www.w3.org/1999/xlink" xmlns:sketch="http://www.bohemiancoding.com/sketch/ns">
    <title>Untitled 3</title>
    <description>Created with Sketch (http://www.bohemiancoding.com/sketch)</description>
    <defs></defs>
    <g id="Page-1" stroke="none" stroke-width="1" fill="none" fill-rule="evenodd" sketch:type="MSPage">
        <g id="Logo" sketch:type="MSLayerGroup" transform="translate(160.000000, 0.000000)" fill="#F7F7F7">
            <path d="M30.5005223,40 C29.1888492,40 28.1010434,38.9713518 28.0490179,37.6613105 C27.5997068,26.3227311 30.2545836,23.7354777 35.3830362,19.7897209 C36.5764696,18.8736299 37.9275559,17.8340387 39.3858463,16.4880416 C45.3356712,10.9993125 43.9861613,3.20472306 43.9262532,2.87643109 C43.6834676,1.55701002 44.5615949,0.287614394 45.8906098,0.0421770625 C47.2259308,-0.204823564 48.4997672,0.658115335 48.752012,1.97440981 C48.8355681,2.40900585 50.7037564,12.7001775 42.7312433,20.0523544 C41.1105703,21.5468646 39.6680452,22.6583674 38.3942088,23.6369901 C34.2857712,26.7979728 32.5846952,28.1064508 32.9551798,37.4690252 C33.0087818,38.813459 31.9540831,39.9452847 30.5982672,39.9984367 C30.5667365,40 30.5336294,40 30.5005223,40" id="Fill-2" sketch:type="MSShapeGroup"></path>
            <path d="M47.4113855,41 C46.1326828,41 45.0744989,39.9674396 45.0300888,38.6541226 C44.7375952,30.028656 46.5936283,27.926101 49.8983475,24.9516408 C50.6808829,24.2481895 51.4909832,23.5197821 52.3975605,22.5418133 C55.9932419,18.6580136 55.1417944,12.8728679 55.1341375,12.8151568 C54.9274011,11.4940411 55.8094763,10.2462339 57.1050242,10.032547 C58.4036348,9.81574049 59.6226137,10.7048031 59.8400698,12.0227993 C59.8936681,12.355028 61.1141783,20.2099737 55.8661373,25.8765778 C54.8125475,27.013642 53.8799368,27.8527923 53.0560541,28.5936778 C50.5185566,30.8771648 49.5691007,31.7319127 49.7972764,38.4872284 C49.8416864,39.8286211 48.8125987,40.9532072 47.4956115,40.9984402 C47.4665152,41 47.4389504,41 47.4113855,41" id="Fill-3" sketch:type="MSShapeGroup"></path>
            <path d="M99,85.4983466 C99,78.8000252 97.0715703,74.2953884 93.2677154,72.1095216 C90.3181689,70.4146149 86.5018424,70.2707667 81.9231859,71.6857949 C81.0719955,71.9500377 80.2769274,72.2439884 79.5644841,72.5332483 C79.6081349,72.097013 79.6580215,71.6685957 79.6985544,71.2292333 C80.7679989,59.8433378 80.6884921,51.7456238 80.6838152,51.4063298 L80.655754,49 L0,49 L0.0857426304,51.517343 C2.59098639,125.004996 25.4858277,135.405845 26.4586168,135.812372 L26.9075964,136 L55.0483277,136 L55.7155612,135.457442 C62.0496032,130.319561 67.2767857,122.246864 71.317602,111.412908 C81.0439342,110.187071 99,103.271414 99,85.4983466 L99,85.4983466 Z M76,54 C75.9609048,56.5528109 75.8342364,60.9510847 75.438593,66.4223021 C65.1456103,73.4353791 52.026827,70.9238964 39.3161975,68.4839433 C37.2003656,68.0770195 35.2018193,67.6939389 33.203273,67.3521865 C22.6663363,65.5480518 11.7634686,67.0851428 5.89449804,68.2455114 C5.51136514,63.8011407 5.20642262,59.0611145 5,54 L76,54 L76,54 Z M52.6808714,131 L27.4975248,131 C25.0604768,129.500531 10.9004677,118.879292 6,72.6940828 C11.3379263,71.627273 21.8958823,70.0559544 31.8178168,71.7397332 C33.7522528,72.0661801 35.7130603,72.4394854 37.7871108,72.833096 C44.277632,74.0685961 51.1776891,75.3806315 57.9381316,75.3806315 C63.4885822,75.3806315 68.9459564,74.4934456 74,71.9552819 C72.9172123,82.8935963 71.1503137,92.8025876 68.7318809,101.402667 C64.8537014,115.202469 59.4552755,125.152071 52.6808714,131 L52.6808714,131 Z M82.5436137,103.547363 C78.970405,105.435673 75.3551402,106.469558 73,107 C73.3380062,105.904177 73.6682243,104.794061 73.9859813,103.650593 C76.0607477,96.1783509 77.6682243,87.7818057 78.7959502,78.6404185 C81.0327103,77.3714872 87.228972,74.7049846 90.7133956,76.7425801 C92.894081,78.0162758 94,81.1481062 94,86.0491348 C94,93.6420765 90.1448598,99.530934 82.5436137,103.547363 L82.5436137,103.547363 Z" id="Fill-4" sketch:type="MSShapeGroup"></path>
        </g>
        <text id="COFFEE-&amp;-DESIGN" sketch:type="MSTextLayer" font-family="Avenir Next" font-size="48" font-weight="normal" sketch:alignment="middle" fill="#F7F7F7">
            <tspan x="-2" y="204">COFFEE &amp; DESIGN</tspan>
        </text>
    </g>
</svg>

<?xml version="1.0" encoding="utf-8"?>
<!-- Generator: Adobe Illustrator 16.2.1, SVG Export Plug-In . SVG Version: 6.00 Build 0)  -->
<!DOCTYPE svg PUBLIC "-//W3C//DTD SVG 1.1//EN" "http://www.w3.org/Graphics/SVG/1.1/DTD/svg11.dtd">
<svg version="1.1" id="Layer_1" xmlns:sketch="http://www.bohemiancoding.com/sketch/ns"
	 xmlns="http://www.w3.org/2000/svg" xmlns:xlink="http://www.w3.org/1999/xlink" x="0px" y="0px" width="416px" height="205px"
	 viewBox="0 0 416 205" enable-background="new 0 0 416 205" xml:space="preserve">
<title>Untitled 3</title>
<description>Created with Sketch (http://www.bohemiancoding.com/sketch)</description>
<g id="Page-1" sketch:type="MSPage">
	<g id="Logo" transform="translate(160.000000, 0.000000)" sketch:type="MSLayerGroup">
		<path id="Fill-2" sketch:type="MSShapeGroup" fill="#F7F7F7" d="M30.5,40c-1.312,0-2.399-1.029-2.452-2.339
			C27.6,26.323,30.254,23.735,35.383,19.79c1.194-0.916,2.545-1.956,4.003-3.301C45.335,11,43.986,3.205,43.926,2.876
			c-0.243-1.319,0.635-2.589,1.964-2.834c1.335-0.247,2.609,0.616,2.861,1.933c0.084,0.435,1.951,10.726-6.021,18.078
			c-1.621,1.495-3.063,2.606-4.337,3.584c-4.108,3.161-5.81,4.47-5.439,13.832c0.054,1.345-1.001,2.477-2.357,2.53
			C30.567,40,30.534,40,30.5,40"/>
		<path id="Fill-3" sketch:type="MSShapeGroup" fill="#F7F7F7" d="M47.411,41c-1.278,0-2.336-1.033-2.381-2.346
			c-0.292-8.625,1.563-10.728,4.868-13.703c0.782-0.704,1.593-1.432,2.499-2.41c3.596-3.884,2.744-9.669,2.737-9.727
			c-0.207-1.321,0.675-2.569,1.971-2.783c1.299-0.217,2.518,0.672,2.734,1.99c0.054,0.332,1.274,8.187-3.974,13.854
			c-1.054,1.137-1.986,1.976-2.81,2.717c-2.538,2.283-3.487,3.138-3.26,9.894c0.045,1.341-0.984,2.466-2.301,2.511
			C47.466,41,47.439,41,47.411,41"/>
		<path id="Fill-4" sketch:type="MSShapeGroup" fill="#F7F7F7" d="M99,85.499c0-6.699-1.928-11.203-5.732-13.389
			c-2.949-1.695-6.766-1.839-11.344-0.424c-0.852,0.265-1.646,0.559-2.359,0.848c0.043-0.436,0.094-0.865,0.135-1.304
			c1.068-11.386,0.989-19.484,0.984-19.823L80.656,49H0l0.086,2.518c2.505,73.487,25.4,83.889,26.373,84.295L26.908,136h28.141
			l0.666-0.543c6.335-5.138,11.562-13.21,15.603-24.044C81.044,110.188,99,103.271,99,85.499L99,85.499z M76,54
			c-0.039,2.553-0.166,6.951-0.562,12.422c-10.293,7.013-23.411,4.501-36.122,2.062c-2.116-0.407-4.115-0.79-6.113-1.132
			c-10.537-1.804-21.439-0.267-27.309,0.894C5.511,63.801,5.207,59.061,5,54H76L76,54z M52.681,131H27.498
			C25.061,129.5,10.9,118.879,6,72.694c5.338-1.067,15.896-2.638,25.818-0.955c1.935,0.327,3.895,0.7,5.969,1.093
			c6.491,1.235,13.391,2.548,20.15,2.548c5.551,0,11.008-0.887,16.062-3.426c-1.083,10.938-2.85,20.848-5.268,29.448
			C64.854,115.203,59.455,125.152,52.681,131L52.681,131z M82.543,103.547C78.971,105.436,75.355,106.47,73,107
			c0.338-1.096,0.668-2.206,0.986-3.35c2.074-7.472,3.682-15.869,4.81-25.01c2.237-1.269,8.433-3.936,11.917-1.898
			C92.895,78.016,94,81.148,94,86.049C94,93.642,90.145,99.531,82.543,103.547L82.543,103.547z"/>
	</g>
	<text transform="matrix(1 0 0 1 -2 204)" fill="#F7F7F7" font-family="'AvenirNext-Regular'" font-size="48">COFFEE &amp; DESIGN</text>
</g>
</svg>
